erlendweb/public/flag_en.svg

<?xml version="1.0" encoding="UTF-8"?>
<svg enable-background="new 0 0 512 512" version="1.1" viewBox="0 0 512 512" xml:space="preserve" xmlns="http://www.w3.org/2000/svg">
	<circle cx="256" cy="256" r="256" fill="#F0F0F0" />
	<g fill="#0052B4">
		<path d="m52.92 100.14c-20.109 26.163-35.272 56.318-44.101 89.077h133.18l-89.077-89.077z" />
		<path d="m503.18 189.22c-8.829-32.758-23.993-62.913-44.101-89.076l-89.075 89.076h133.18z" />
		<path d="m8.819 322.78c8.83 32.758 23.993 62.913 44.101 89.075l89.074-89.075h-133.18z" />
		<path d="m411.86 52.921c-26.163-20.109-56.317-35.272-89.076-44.102v133.18l89.076-89.075z" />
		<path d="m100.14 459.08c26.163 20.109 56.318 35.272 89.076 44.102v-133.18l-89.076 89.074z" />
		<path d="M189.217,8.819c-32.758,8.83-62.913,23.993-89.075,44.101l89.075,89.075V8.819z" />
		<path d="m322.78 503.18c32.758-8.83 62.913-23.993 89.075-44.101l-89.075-89.075v133.18z" />
		<path d="m370 322.78 89.075 89.076c20.108-26.162 35.272-56.318 44.101-89.076h-133.18z" />
	</g>
	<g fill="#D80027">
		<path d="m509.83 222.61h-220.44v-220.44c-10.931-1.423-22.075-2.167-33.392-2.167-11.319 0-22.461 0.744-33.391 2.167v220.44h-220.44c-1.423 10.931-2.167 22.075-2.167 33.392 0 11.319 0.744 22.461 2.167 33.391h220.44v220.44c10.931 1.423 22.073 2.167 33.392 2.167 11.317 0 22.461-0.743 33.391-2.167v-220.44h220.44c1.423-10.931 2.167-22.073 2.167-33.392 0-11.317-0.744-22.461-2.167-33.391z" />
		<path d="m322.78 322.78 114.24 114.24c5.254-5.252 10.266-10.743 15.048-16.435l-97.802-97.802h-31.482v1e-3z" />
		<path d="m189.22 322.78h-2e-3l-114.24 114.24c5.252 5.254 10.743 10.266 16.435 15.048l97.802-97.804v-31.479z" />
		<path d="m189.22 189.22v-2e-3l-114.24-114.24c-5.254 5.252-10.266 10.743-15.048 16.435l97.803 97.803h31.481z" />
		<path d="m322.78 189.22 114.24-114.24c-5.252-5.254-10.743-10.266-16.435-15.047l-97.802 97.803v31.482z" />
	</g>
</svg>

<?xml version="1.0" encoding="iso-8859-1"?>
<!-- Generator: Adobe Illustrator 19.0.0, SVG Export Plug-In . SVG Version: 6.00 Build 0)  -->
<svg version="1.1" id="Layer_1" xmlns="http://www.w3.org/2000/svg" xmlns:xlink="http://www.w3.org/1999/xlink" x="0px" y="0px"
	 viewBox="0 0 512 512" style="enable-background:new 0 0 512 512;" xml:space="preserve">
<circle style="fill:#F0F0F0;" cx="256" cy="256" r="256"/>
<g>
	<path style="fill:#0052B4;" d="M52.92,100.142c-20.109,26.163-35.272,56.318-44.101,89.077h133.178L52.92,100.142z"/>
	<path style="fill:#0052B4;" d="M503.181,189.219c-8.829-32.758-23.993-62.913-44.101-89.076l-89.075,89.076H503.181z"/>
	<path style="fill:#0052B4;" d="M8.819,322.784c8.83,32.758,23.993,62.913,44.101,89.075l89.074-89.075L8.819,322.784L8.819,322.784
		z"/>
	<path style="fill:#0052B4;" d="M411.858,52.921c-26.163-20.109-56.317-35.272-89.076-44.102v133.177L411.858,52.921z"/>
	<path style="fill:#0052B4;" d="M100.142,459.079c26.163,20.109,56.318,35.272,89.076,44.102V370.005L100.142,459.079z"/>
	<path style="fill:#0052B4;" d="M189.217,8.819c-32.758,8.83-62.913,23.993-89.075,44.101l89.075,89.075V8.819z"/>
	<path style="fill:#0052B4;" d="M322.783,503.181c32.758-8.83,62.913-23.993,89.075-44.101l-89.075-89.075V503.181z"/>
	<path style="fill:#0052B4;" d="M370.005,322.784l89.075,89.076c20.108-26.162,35.272-56.318,44.101-89.076H370.005z"/>
</g>
<g>
	<path style="fill:#D80027;" d="M509.833,222.609h-220.44h-0.001V2.167C278.461,0.744,267.317,0,256,0
		c-11.319,0-22.461,0.744-33.391,2.167v220.44v0.001H2.167C0.744,233.539,0,244.683,0,256c0,11.319,0.744,22.461,2.167,33.391
		h220.44h0.001v220.442C233.539,511.256,244.681,512,256,512c11.317,0,22.461-0.743,33.391-2.167v-220.44v-0.001h220.442
		C511.256,278.461,512,267.319,512,256C512,244.683,511.256,233.539,509.833,222.609z"/>
	<path style="fill:#D80027;" d="M322.783,322.784L322.783,322.784L437.019,437.02c5.254-5.252,10.266-10.743,15.048-16.435
		l-97.802-97.802h-31.482V322.784z"/>
	<path style="fill:#D80027;" d="M189.217,322.784h-0.002L74.98,437.019c5.252,5.254,10.743,10.266,16.435,15.048l97.802-97.804
		V322.784z"/>
	<path style="fill:#D80027;" d="M189.217,189.219v-0.002L74.981,74.98c-5.254,5.252-10.266,10.743-15.048,16.435l97.803,97.803
		H189.217z"/>
	<path style="fill:#D80027;" d="M322.783,189.219L322.783,189.219L437.02,74.981c-5.252-5.254-10.743-10.266-16.435-15.047
		l-97.802,97.803V189.219z"/>
</g>
<g>
</g>
<g>
</g>
<g>
</g>
<g>
</g>
<g>
</g>
<g>
</g>
<g>
</g>
<g>
</g>
<g>
</g>
<g>
</g>
<g>
</g>
<g>
</g>
<g>
</g>
<g>
</g>
<g>
</g>
</svg>
